assets/svg/action_wallet_confirmphone.svg

<svg width="80" height="80" viewBox="0 0 80 80" fill="none" xmlns="http://www.w3.org/2000/svg">
<path d="M34.3598 8.05313H22.8754C21.9348 8.05313 21.0988 7.45156 20.8004 6.55781L19.4473 2.5H37.7879L36.4348 6.55781C36.2892 6.99307 36.0106 7.37159 35.6383 7.63991C35.2659 7.90823 34.8187 8.05277 34.3598 8.05313Z" fill="#0166FF"/>
<path d="M12.507 19.0727V68.382C12.507 71.9695 15.4148 74.8773 19.0023 74.8773H35.9383C37.9117 74.8773 39.7555 75.8602 40.8555 77.4992H16.8648C13.0102 77.4992 9.88672 74.3742 9.88672 70.5211V14.1523C10.6932 14.695 11.354 15.4275 11.8109 16.2855C12.2678 17.1435 12.5069 18.1006 12.507 19.0727Z" fill="#E1EAF8"/>
<path d="M58.2812 64.1049H58.2766L56.475 62.3033L54.2078 64.7737C52.6188 66.5049 50.0547 66.9252 47.9953 65.794C45.8502 64.6151 43.8827 63.1385 42.1516 61.408L32.2156 51.4721C31.4712 50.7273 30.5715 50.1559 29.5808 49.7989C28.5901 49.4418 27.5328 49.3078 26.4844 49.4065L43.2484 66.1705C47.0062 69.9283 53.0984 69.9283 56.8562 66.1705L58.5984 64.4283L59.9594 63.0674C60.2453 62.7815 60.3766 62.4018 60.3594 62.0268L58.2812 64.1049Z" fill="#E1EAF8"/>
<path d="M54.2867 54.6766C53.5383 53.9281 52.318 53.9281 51.5695 54.6766L48.5445 57.7016C48.4168 57.83 48.2649 57.9318 48.0975 58.001C47.9301 58.0702 47.7506 58.1054 47.5695 58.1047C47.2023 58.1047 46.8555 57.9609 46.5961 57.7016L33.8227 44.9281C33.2852 44.3906 33.2852 43.5172 33.8227 42.9797L36.8477 39.9547C37.5961 39.2062 37.5961 37.9859 36.8477 37.2375L30.7883 31.1781C30.0398 30.4297 28.8195 30.4297 28.0711 31.1781L24.968 34.2797C24.4183 34.8288 23.9334 35.439 23.5227 36.0984C23.3633 36.3547 23.4414 36.6922 23.6977 36.8516C23.9539 37.0109 24.2914 36.9328 24.4508 36.6766C24.8148 36.0906 25.2492 35.5453 25.7414 35.0531L28.8445 31.9516C29.0008 31.7953 29.2086 31.7094 29.4305 31.7094C29.6523 31.7094 29.8602 31.7953 30.0164 31.9516L36.0758 38.0109C36.3992 38.3344 36.3992 38.8594 36.0758 39.1812L35.1023 40.1547L29.6852 34.7375C29.4711 34.5234 29.1258 34.5234 28.9117 34.7375C28.6977 34.9516 28.6977 35.2969 28.9117 35.5109L34.3289 40.9266L33.0508 42.2047C32.0867 43.1687 32.0867 44.7359 33.0508 45.7L45.8242 58.4734C46.2914 58.9406 46.9117 59.1969 47.5711 59.1969C48.2305 59.1969 48.8523 58.9391 49.318 58.4734L52.343 55.4484C52.4992 55.2922 52.707 55.2063 52.9289 55.2063C53.1508 55.2063 53.3586 55.2922 53.5148 55.4484L59.5742 61.5078C59.8977 61.8312 59.8977 62.3563 59.5742 62.6781L58.6008 63.6516L53.3133 58.3641C53.0992 58.15 52.7539 58.15 52.5398 58.3641C52.3258 58.5781 52.3258 58.9234 52.5398 59.1375L57.8273 64.425L56.4727 65.7797C52.9336 69.3187 47.1758 69.3187 43.6367 65.7797L25.7414 47.8891C23.7258 45.8734 22.7867 43.0953 23.1633 40.2672C23.1728 40.196 23.1682 40.1236 23.1497 40.0542C23.1312 39.9847 23.0992 39.9197 23.0555 39.8626C23.0118 39.8056 22.9573 39.7577 22.8951 39.7218C22.8329 39.6858 22.7642 39.6625 22.693 39.6531C22.6217 39.6435 22.5493 39.648 22.4798 39.6664C22.4103 39.6849 22.3452 39.7169 22.2881 39.7606C22.2311 39.8043 22.1832 39.8588 22.1473 39.9211C22.1114 39.9834 22.0881 40.0522 22.0789 40.1234C21.657 43.2922 22.7102 46.4047 24.968 48.6641L42.8617 66.5578C44.007 67.7031 45.3617 68.5172 46.8039 69V70.5234C46.8039 74.0703 43.918 76.9547 40.3727 76.9547H16.8648C13.318 76.9547 10.4336 74.0687 10.4336 70.5234V9.47813C10.4336 5.93125 13.3195 3.04688 16.8648 3.04688H40.3727C43.9195 3.04688 46.8039 5.93281 46.8039 9.47813V12.7313C46.8039 13.0328 47.0492 13.2781 47.3508 13.2781C47.6523 13.2781 47.8977 13.0328 47.8977 12.7313V9.47813C47.8977 5.32812 44.5211 1.95312 40.3727 1.95312H16.8648C12.7148 1.95312 9.33984 5.32969 9.33984 9.47813V70.5203C9.33984 74.6703 12.7164 78.0453 16.8648 78.0453H40.3727C44.5227 78.0453 47.8977 74.6687 47.8977 70.5203V69.2969C48.607 69.45 49.3305 69.5297 50.0523 69.5297C52.657 69.5297 55.2602 68.5391 57.243 66.5563L58.9836 64.8156L60.3445 63.4547C61.093 62.7062 61.093 61.4859 60.3445 60.7375L54.2867 54.6766Z" fill="#9A9A9A"/>
<path d="M65.9906 19.6195C62.9922 16.632 59.0125 14.9883 54.7812 14.9883H54.7484C46.0125 15.0055 38.9016 22.1273 38.8984 30.8648C38.8969 34.6461 40.2469 38.3102 42.7 41.182C42.8547 41.3617 42.9313 41.5883 42.9156 41.8195C42.9066 41.9643 42.9553 42.1067 43.051 42.2157C43.1468 42.3246 43.2818 42.3912 43.4266 42.4008C43.7266 42.418 43.9875 42.1914 44.0063 41.8898C44.0391 41.3742 43.8703 40.8711 43.5297 40.4727C41.2453 37.7992 39.9891 34.3883 39.9891 30.8664C39.9922 22.732 46.6125 16.1008 54.7469 16.0836H54.7781C58.7172 16.0836 62.4234 17.6148 65.2156 20.3961C68.0141 23.1836 69.5594 26.8945 69.5672 30.843C69.5828 38.8727 63.0672 45.5195 55.0422 45.6586C53.9797 45.6773 52.9203 45.582 51.8891 45.3773C51.4078 45.282 50.9125 45.3633 50.4937 45.6086L43.7859 49.5305C43.7094 49.5758 43.6438 49.5492 43.6109 49.5289C43.5781 49.5086 43.525 49.4617 43.5313 49.3742L43.8328 44.6367C43.8419 44.492 43.7932 44.3495 43.6974 44.2406C43.6016 44.1316 43.4666 44.0651 43.3219 44.0555C43.0219 44.0383 42.7609 44.2648 42.7422 44.5664L42.4406 49.3039C42.4261 49.5328 42.4741 49.7613 42.5795 49.965C42.6849 50.1687 42.8438 50.3399 43.0391 50.4602C43.2422 50.5852 43.4719 50.6492 43.7016 50.6492C43.9219 50.6492 44.1422 50.5914 44.3391 50.4758L46.8031 49.0352V53.5789C46.8031 53.8805 47.0484 54.1258 47.35 54.1258C47.6516 54.1258 47.8969 53.8805 47.8969 53.5789V48.3945L51.0469 46.5523C51.2344 46.443 51.4578 46.407 51.6766 46.4508C52.7844 46.6711 53.9234 46.7711 55.0609 46.7523C63.6797 46.6023 70.6781 39.4648 70.6609 30.8414C70.6547 26.5977 68.9953 22.6133 65.9906 19.6195Z" fill="#9A9A9A"/>
<g clip-path="url(#clip0_35803_67430)">
<path fill-rule="evenodd" clip-rule="evenodd" d="M54.75 41.1992C60.4109 41.1992 65 36.6101 65 30.9492C65 25.2883 60.4109 20.6992 54.75 20.6992C49.0891 20.6992 44.5 25.2883 44.5 30.9492C44.5 36.6101 49.0891 41.1992 54.75 41.1992ZM60.8995 28.4794C61.3688 28.0101 61.3688 27.2492 60.8995 26.7798C60.4302 26.3105 59.6693 26.3105 59.1999 26.7798L53.4105 32.5693L50.9407 30.0994C50.4714 29.6301 49.7105 29.6301 49.2411 30.0994C48.7718 30.5688 48.7718 31.3297 49.2411 31.799L52.5607 35.1186C53.0301 35.5879 53.791 35.5879 54.2603 35.1186L60.8995 28.4794Z" fill="#0166FF"/>
</g>
<path d="M75.1042 47.2015C75.0073 47.2015 74.9105 47.1765 74.8214 47.1218L71.3417 45.0124C71.0839 44.8562 71.0011 44.5202 71.1573 44.2608C71.3136 44.003 71.6495 43.9202 71.9089 44.0765L75.3886 46.1858C75.4906 46.248 75.5695 46.3418 75.6132 46.4529C75.657 46.564 75.6633 46.6864 75.6311 46.8014C75.5989 46.9164 75.53 47.0177 75.4349 47.0899C75.3398 47.1622 75.2237 47.2013 75.1042 47.2015ZM61.4964 55.5874C61.2214 55.5874 60.9839 55.3796 60.9542 55.0999L60.5073 51.0562C60.4994 50.9849 60.5057 50.9127 60.5256 50.8438C60.5456 50.7749 60.579 50.7106 60.6238 50.6546C60.6687 50.5986 60.7241 50.552 60.7869 50.5174C60.8498 50.4828 60.9189 50.4609 60.9902 50.453C61.0615 50.4449 61.1338 50.4509 61.2028 50.4708C61.2718 50.4906 61.3362 50.524 61.3923 50.5689C61.4483 50.6137 61.495 50.6693 61.5295 50.7323C61.564 50.7952 61.5857 50.8644 61.5933 50.9358L62.0402 54.9796C62.0481 55.0509 62.0418 55.1231 62.0219 55.192C62.0019 55.2609 61.9685 55.3252 61.9237 55.3812C61.8788 55.4372 61.8234 55.4838 61.7606 55.5184C61.6977 55.553 61.6287 55.5748 61.5573 55.5827C61.537 55.5858 61.5167 55.5874 61.4964 55.5874ZM71.6261 19.3499C71.5066 19.3499 71.3904 19.3108 71.2952 19.2386C71.2 19.1663 71.1311 19.065 71.0988 18.9499C71.0666 18.8349 71.0729 18.7124 71.1168 18.6013C71.1606 18.4901 71.2396 18.3964 71.3417 18.3343L74.8214 16.2249C75.0792 16.0687 75.4167 16.1515 75.573 16.4093C75.7292 16.6671 75.6464 17.0046 75.3886 17.1608L71.9089 19.2702C71.8198 19.3249 71.7214 19.3499 71.6261 19.3499ZM61.0511 12.8999C61.0308 12.8999 61.0105 12.8983 60.9902 12.8968C60.9188 12.889 60.8497 12.8673 60.7867 12.8327C60.7238 12.7982 60.6683 12.7515 60.6235 12.6955C60.5786 12.6395 60.5453 12.5751 60.5253 12.5062C60.5054 12.4372 60.4993 12.365 60.5073 12.2937L60.9542 8.24991C60.962 8.17856 60.9838 8.10944 61.0183 8.04652C61.0529 7.98361 61.0995 7.92813 61.1555 7.88327C61.2116 7.83842 61.2759 7.80507 61.3449 7.78513C61.4138 7.76519 61.486 7.75906 61.5573 7.7671C61.8573 7.79991 62.0745 8.07022 62.0402 8.37022L61.5933 12.414C61.5783 12.5474 61.5147 12.6706 61.4147 12.7602C61.3148 12.8498 61.1853 12.8995 61.0511 12.8999Z" fill="#0166FF"/>
<defs>
<clipPath id="clip0_35803_67430">
<rect width="20.5" height="20.5" fill="white" transform="translate(44.5 20.6992)"/>
</clipPath>
</defs>
</svg>

<svg xmlns="http://www.w3.org/2000/svg" width="80" height="80" fill="none"><path fill="#0166FF" d="M34.36 8.053H22.875c-.94 0-1.776-.601-2.075-1.495L19.447 2.5h18.34l-1.352 4.058a2.19 2.19 0 0 1-2.075 1.495"/><path fill="#E1EAF8" d="M12.507 19.073v49.309a6.495 6.495 0 0 0 6.495 6.495h16.936c1.974 0 3.817.983 4.917 2.622h-23.99a6.98 6.98 0 0 1-6.978-6.978V14.152a5.93 5.93 0 0 1 2.62 4.92"/><path fill="#E1EAF8" d="M58.281 64.105h-.004l-1.802-1.802-2.267 2.47a5.1 5.1 0 0 1-6.213 1.021 26 26 0 0 1-5.843-4.386l-9.936-9.936a7.16 7.16 0 0 0-5.732-2.065L43.248 66.17a9.62 9.62 0 0 0 13.608 0l1.742-1.743 1.361-1.36c.286-.286.418-.666.4-1.041z"/><path fill="#9A9A9A" d="M54.287 54.677a1.925 1.925 0 0 0-2.718 0l-3.025 3.025a1.37 1.37 0 0 1-.974.403 1.37 1.37 0 0 1-.974-.403L33.823 44.928a1.38 1.38 0 0 1 0-1.948l3.025-3.025a1.925 1.925 0 0 0 0-2.718l-6.06-6.059a1.925 1.925 0 0 0-2.717 0l-3.103 3.102a10.2 10.2 0 0 0-1.445 1.818.547.547 0 0 0 .928.579 9 9 0 0 1 1.29-1.624l3.104-3.101a.82.82 0 0 1 .585-.243c.222 0 .43.086.586.243l6.06 6.059a.827.827 0 0 1 0 1.17l-.974.974-5.417-5.418a.546.546 0 1 0-.773.774l5.417 5.416-1.278 1.278a2.474 2.474 0 0 0 0 3.495l12.773 12.773a2.45 2.45 0 0 0 1.747.724c.66 0 1.281-.258 1.747-.724l3.025-3.025a.82.82 0 0 1 .586-.242c.222 0 .43.086.586.242l6.06 6.06a.827.827 0 0 1 0 1.17l-.974.974-5.288-5.288a.546.546 0 1 0-.773.774l5.287 5.287-1.354 1.355c-3.54 3.539-9.297 3.539-12.836 0L25.74 47.89a9.02 9.02 0 0 1-2.578-7.623.546.546 0 1 0-1.084-.144 10.1 10.1 0 0 0 2.889 8.541l17.894 17.894A10.1 10.1 0 0 0 46.804 69v1.523a6.44 6.44 0 0 1-6.431 6.432H16.865a6.44 6.44 0 0 1-6.431-6.432V9.478a6.44 6.44 0 0 1 6.43-6.431h23.509a6.44 6.44 0 0 1 6.43 6.431v3.253a.547.547 0 0 0 1.095 0V9.478c0-4.15-3.377-7.525-7.525-7.525H16.865c-4.15 0-7.525 3.377-7.525 7.525V70.52c0 4.15 3.376 7.525 7.525 7.525h23.508c4.15 0 7.525-3.376 7.525-7.525v-1.223c.709.153 1.432.233 2.154.233 2.605 0 5.208-.99 7.191-2.974l1.74-1.74 1.361-1.361a1.925 1.925 0 0 0 0-2.718z"/><path fill="#9A9A9A" d="M65.99 19.62a15.78 15.78 0 0 0-11.209-4.632h-.033c-8.735.018-15.846 7.14-15.85 15.877A15.9 15.9 0 0 0 42.7 41.182c.155.18.231.406.216.637a.55.55 0 0 0 .51.582c.3.017.561-.21.58-.511a1.98 1.98 0 0 0-.476-1.417 14.8 14.8 0 0 1-3.54-9.607c.002-8.134 6.622-14.765 14.757-14.782h.031c3.94 0 7.645 1.53 10.438 4.312a14.7 14.7 0 0 1 4.351 10.447c.016 8.03-6.5 14.677-14.525 14.816a15 15 0 0 1-3.153-.282 2 2 0 0 0-1.395.232l-6.708 3.922a.16.16 0 0 1-.175-.002.16.16 0 0 1-.08-.155l.302-4.737a.55.55 0 0 0-.511-.581.55.55 0 0 0-.58.51l-.301 4.738a1.265 1.265 0 0 0 1.898 1.172l2.464-1.44v4.543a.547.547 0 0 0 1.094 0v-5.184l3.15-1.843a.9.9 0 0 1 .63-.101c1.107.22 2.246.32 3.384.301 8.619-.15 15.617-7.287 15.6-15.91a15.77 15.77 0 0 0-4.67-11.222"/><g clip-path="url(#a)"><path fill="#0166FF" fill-rule="evenodd" d="M54.75 41.2C60.41 41.2 65 36.61 65 30.95c0-5.662-4.59-10.25-10.25-10.25S44.5 25.287 44.5 30.95c0 5.66 4.59 10.25 10.25 10.25m6.15-12.72a1.202 1.202 0 0 0-1.7-1.7l-5.79 5.79-2.47-2.47a1.202 1.202 0 0 0-1.699 1.699l3.32 3.32c.47.469 1.23.469 1.7 0z" clip-rule="evenodd"/></g><path fill="#0166FF" d="M75.104 47.202a.54.54 0 0 1-.283-.08l-3.48-2.11a.548.548 0 0 1 .568-.935l3.48 2.109a.548.548 0 0 1-.285 1.016m-13.608 8.385a.546.546 0 0 1-.542-.487l-.447-4.044a.548.548 0 0 1 .885-.487.54.54 0 0 1 .201.367l.447 4.044a.55.55 0 0 1-.544.607m10.13-36.237a.548.548 0 0 1-.284-1.016l3.48-2.11a.548.548 0 0 1 .567.937l-3.48 2.11a.54.54 0 0 1-.283.079M61.051 12.9l-.06-.003a.546.546 0 0 1-.484-.603l.447-4.044a.547.547 0 1 1 1.086.12l-.447 4.044a.547.547 0 0 1-.542.486"/><defs><clipPath id="a"><path fill="#fff" d="M44.5 20.7H65v20.5H44.5z"/></clipPath></defs></svg>
